src/symbolic/status/folder-visiting-symbolic.svg

<?xml version="1.0" encoding="UTF-8" standalone="no"?>
<svg
   xmlns:dc="http://purl.org/dc/elements/1.1/"
   xmlns:cc="http://creativecommons.org/ns#"
   xmlns:rdf="http://www.w3.org/1999/02/22-rdf-syntax-ns#"
   xmlns:svg="http://www.w3.org/2000/svg"
   xmlns="http://www.w3.org/2000/svg"
   xmlns:sodipodi="http://sodipodi.sourceforge.net/DTD/sodipodi-0.dtd"
   xmlns:inkscape="http://www.inkscape.org/namespaces/inkscape"
   width="16"
   height="16"
   version="1.1"
   id="svg6"
   sodipodi:docname="folder-visiting-symbolic.svg"
   inkscape:version="0.92.4 (5da689c313, 2019-01-14)">
  <metadata
     id="metadata12">
    <rdf:RDF>
      <cc:Work
         rdf:about="">
        <dc:format>image/svg+xml</dc:format>
        <dc:type
           rdf:resource="http://purl.org/dc/dcmitype/StillImage" />
      </cc:Work>
    </rdf:RDF>
  </metadata>
  <defs
     id="defs10" />
  <sodipodi:namedview
     pagecolor="#ffffff"
     bordercolor="#666666"
     borderopacity="1"
     objecttolerance="10"
     gridtolerance="10"
     guidetolerance="10"
     inkscape:pageopacity="0"
     inkscape:pageshadow="2"
     inkscape:window-width="1366"
     inkscape:window-height="712"
     id="namedview8"
     showgrid="false"
     inkscape:zoom="5.2149125"
     inkscape:cx="36.466218"
     inkscape:cy="18.084175"
     inkscape:window-x="0"
     inkscape:window-y="30"
     inkscape:window-maximized="1"
     inkscape:current-layer="svg6" />
  <path
     style="display:inline;opacity:0.25;fill:#444444;fill-opacity:1;stroke:none;stroke-width:1;stroke-linecap:round;stroke-linejoin:miter;stroke-miterlimit:4;stroke-dasharray:none;stroke-opacity:1;paint-order:stroke markers fill;enable-background:new"
     d="M 2 1 C 1.446 1 1 1.446 1 2 L 1 5 L 7 5 L 8 3 L 15 3 L 15 2 C 15 1.446 14.554 1 14 1 L 2 1 z "
     id="rect23" />
  <path
     inkscape:connector-curvature="0"
     d="M 16,4 V 15 H 0 V 5 H 7 L 8,3 h 7 c 0.5,0 1,0.5 1,1 z"
     style="fill:#444444;fill-opacity:1;stroke:none;opacity:0.5"
     id="path4" />
  <path
     inkscape:connector-curvature="0"
     style="opacity:1;fill:#444444;fill-opacity:1;stroke:none;stroke-width:1;stroke-linecap:round;stroke-linejoin:miter;stroke-miterlimit:4;stroke-dasharray:none;stroke-opacity:1;paint-order:stroke markers fill"
     d="M 8.9179688,3 7.8574219,3.2832031 7,5 H 1.453125 L 0,5.3886719 v 2.0703125 l 15.630859,-4.1875 C 15.450374,3.1112925 15.227721,3 15,3 Z M 16,4.2285156 0,8.5175781 V 10.587891 L 16,6.2988281 Z m 0,3.125 -16,4.2890624 v 2.070313 L 16,9.4257812 Z M 16,10.480469 0,14.769531 V 15 H 6.8632812 L 16,12.550781 Z M 16,13.607422 10.806641,15 H 16 Z"
     id="rect830" />
</svg>

<svg xmlns="http://www.w3.org/2000/svg" width="16" height="16"><path d="M2 1c-.554 0-1 .446-1 1v3h6l1-2h7V2c0-.554-.446-1-1-1H2z" opacity=".25" fill="#444" paint-order="stroke markers fill"/><path d="M16 4v11H0V5h7l1-2h7c.5 0 1 .5 1 1z" fill="#444" opacity=".5"/><path d="M8.918 3l-1.06.283L7 5H1.453L0 5.389v2.07l15.63-4.188C15.45 3.111 15.229 3 15 3zM16 4.229L0 8.518v2.07l16-4.29zm0 3.125L0 11.643v2.07l16-4.287zm0 3.126L0 14.77V15h6.863L16 12.55zm0 3.127L10.807 15H16z" fill="#444" paint-order="stroke markers fill"/></svg>
